MA4T1/133/aimg/patron-3.svg

<svg clip-rule="evenodd" fill-rule="evenodd" stroke-linecap="round" stroke-linejoin="round" stroke-miterlimit="10" viewBox="0 0 2221 226" xmlns="http://www.w3.org/2000/svg"><path d="m0 40.535h-380.763c-5.225 0-9.461-4.236-9.461-9.461v-21.613c0-5.226 4.236-9.461 9.461-9.461h380.763c5.226 0 9.461 4.235 9.461 9.461v21.613c0 5.225-4.235 9.461-9.461 9.461" fill="#cae1f5" fill-rule="nonzero" transform="matrix(5.55556 0 0 5.55556 2167.93008772 .090656)"/><g stroke-width=".43"><path d="m168.831 330.469h32.052v32.052h-32.052z" fill="#baa7d1" stroke="#74489d" transform="matrix(-5.55556 0 0 5.55556 1251.917688244 -1811.77746016)"/><path d="m275.07 330.469h32.052v32.052h-32.052z" fill="#baa7d1" stroke="#74489d" transform="matrix(-5.55556 0 0 5.55556 2432.351965924 -1811.77746016)"/><path d="m381.308 330.469h32.052v32.052h-32.052z" fill="#baa7d1" stroke="#74489d" transform="matrix(-5.55556 0 0 5.55556 3612.775132484 -1811.77746016)"/><path d="m487.546 330.469h32.052v32.052h-32.052z" fill="#baa7d1" stroke="#74489d" transform="matrix(-5.55556 0 0 5.55556 4793.176076804 -1811.77746016)"/><path d="m0-31.978-16.812 12.214 6.422 19.764h20.78l6.422-19.764z" fill="#cbbea4" fill-rule="nonzero" stroke="#927c45" transform="matrix(5.55556 0 0 5.55556 520.044880524 202.23526216)"/><path d="m0-31.978-16.812 12.214 6.421 19.764h20.782l6.421-19.764z" fill="#cbbea4" fill-rule="nonzero" stroke="#927c45" transform="matrix(5.55556 0 0 5.55556 1110.256463804 202.23526216)"/><path d="m0-31.978-16.812 12.214 6.422 19.764h20.781l6.421-19.764z" fill="#cbbea4" fill-rule="nonzero" stroke="#927c45" transform="matrix(5.55556 0 0 5.55556 1700.468047084 202.23526216)"/></g></svg>

<?xml version="1.0" encoding="UTF-8" standalone="no"?>
<!DOCTYPE svg PUBLIC "-//W3C//DTD SVG 1.1//EN" "http://www.w3.org/Graphics/SVG/1.1/DTD/svg11.dtd">
<svg width="100%" height="100%" viewBox="0 0 2221 226" version="1.1" xmlns="http://www.w3.org/2000/svg" xmlns:xlink="http://www.w3.org/1999/xlink" xml:space="preserve" xmlns:serif="http://www.serif.com/" style="fill-rule:evenodd;clip-rule:evenodd;stroke-linecap:round;stroke-linejoin:round;stroke-miterlimit:10;">
    <g transform="matrix(1,0,0,1,-22510.8,-21342.7)">
        <g transform="matrix(5.55556,0,0,5.55556,21791.3,19133.9)">
            <g transform="matrix(1,0,0,1,519.737,397.6)">
                <path d="M0,40.535L-380.763,40.535C-385.988,40.535 -390.224,36.299 -390.224,31.074L-390.224,9.461C-390.224,4.235 -385.988,0 -380.763,0L0,0C5.226,0 9.461,4.235 9.461,9.461L9.461,31.074C9.461,36.299 5.226,40.535 0,40.535" style="fill:rgb(202,225,245);fill-rule:nonzero;"/>
            </g>
        </g>
        <g transform="matrix(5.55556,0,0,5.55556,21791.3,19133.9)">
            <g transform="matrix(1,0,0,1,-14.8591,-0.9)">
                <g transform="matrix(-1,0,0,1,369.714,72.364)">
                    <rect x="168.831" y="330.469" width="32.052" height="32.052" style="fill:rgb(186,167,209);stroke:rgb(116,72,157);stroke-width:0.43px;"/>
                </g>
                <g transform="matrix(-1,0,0,1,582.192,72.364)">
                    <rect x="275.07" y="330.469" width="32.052" height="32.052" style="fill:rgb(186,167,209);stroke:rgb(116,72,157);stroke-width:0.43px;"/>
                </g>
                <g transform="matrix(-1,0,0,1,794.668,72.364)">
                    <rect x="381.308" y="330.469" width="32.052" height="32.052" style="fill:rgb(186,167,209);stroke:rgb(116,72,157);stroke-width:0.43px;"/>
                </g>
                <g transform="matrix(-1,0,0,1,1007.14,72.364)">
                    <rect x="487.546" y="330.469" width="32.052" height="32.052" style="fill:rgb(186,167,209);stroke:rgb(116,72,157);stroke-width:0.43px;"/>
                </g>
                <g transform="matrix(1,0,0,1,237.977,434.886)">
                    <path d="M0,-31.978L-16.812,-19.764L-10.39,0L10.39,0L16.812,-19.764L0,-31.978Z" style="fill:rgb(203,190,164);fill-rule:nonzero;stroke:rgb(146,124,69);stroke-width:0.43px;"/>
                </g>
                <g transform="matrix(1,0,0,1,344.215,434.886)">
                    <path d="M0,-31.978L-16.812,-19.764L-10.391,0L10.391,0L16.812,-19.764L0,-31.978Z" style="fill:rgb(203,190,164);fill-rule:nonzero;stroke:rgb(146,124,69);stroke-width:0.43px;"/>
                </g>
                <g transform="matrix(1,0,0,1,450.453,434.886)">
                    <path d="M0,-31.978L-16.812,-19.764L-10.39,0L10.391,0L16.812,-19.764L0,-31.978Z" style="fill:rgb(203,190,164);fill-rule:nonzero;stroke:rgb(146,124,69);stroke-width:0.43px;"/>
                </g>
            </g>
        </g>
    </g>
</svg>
